src/images/circuits/emilia.svg

<svg width="39" height="23" viewBox="0 0 39 23" fill="none" xmlns="http://www.w3.org/2000/svg">
<path d="M37.4074 1.38938L37.8794 2.25391C38.0315 2.46335 38.3586 2.96211 38.4499 3.28164C38.564 3.68105 36.567 4.4228 35.9964 4.76515C35.4259 5.10749 33.9424 6.53394 33.4859 7.38981C33.0294 8.24568 28.5789 10.9845 28.1224 11.3268C27.666 11.6692 25.8401 12.3539 25.8972 11.8974C25.9428 11.5322 25.1554 11.4409 24.756 11.4409C22.6829 11.536 18.2857 11.7376 17.2814 11.7833C16.5582 11.8161 15.91 11.7129 15.4901 11.6099C15.2659 11.5549 15.0218 11.632 14.896 11.8256C14.5091 12.421 13.9713 13.3078 13.858 13.7232C13.6868 14.3509 14.885 17.2038 14.9421 17.9455C14.9991 18.6873 14.3144 20.399 13.858 20.8555C13.4015 21.312 10.7768 21.3119 9.63567 20.8555C8.49451 20.399 4.55737 21.5402 2.73151 21.8255C0.90566 22.1108 0.962815 21.2549 1.01987 20.8555C1.07693 20.4561 4.7857 17.6032 5.12804 17.1467C5.47039 16.6903 4.67183 15.8344 4.67183 15.3779C4.67183 14.9215 7.01109 8.70214 7.52461 7.61804C8.03813 6.53394 8.95119 6.30571 9.29354 6.07748C9.51667 5.92872 9.85586 5.66887 10.0767 5.49541C10.1611 5.42909 10.2207 5.33676 10.2494 5.23332C10.3582 4.84145 10.5435 4.23929 10.6626 4.08045C10.8338 3.85222 16.3683 3.11047 17.7377 2.99635C18.8223 2.90597 22.2337 3.55384 23.852 3.89897C23.8848 3.90597 23.9159 3.90944 23.9495 3.90974C25.9085 3.92757 29.9324 3.88377 30.7471 3.56693C31.5107 3.26996 34.8636 1.93181 36.7838 1.16431C37.0188 1.07037 37.2861 1.16721 37.4074 1.38938Z" stroke="#FF0000"/>
</svg>

<svg width="39" height="23" fill="none" xmlns="http://www.w3.org/2000/svg"><path d="m37.407 1.39.472.864c.153.21.48.708.57 1.028.115.399-1.882 1.14-2.453 1.483-.57.342-2.054 1.769-2.51 2.625-.457.856-4.907 3.595-5.364 3.937-.456.342-2.282 1.027-2.225.57.046-.365-.742-.456-1.141-.456l-7.475.342a6.504 6.504 0 0 1-1.79-.173.548.548 0 0 0-.595.216c-.387.595-.925 1.482-1.038 1.897-.171.628 1.027 3.48 1.084 4.222.057.742-.628 2.454-1.084 2.91-.457.457-3.081.457-4.222 0-1.141-.456-5.079.685-6.904.97-1.826.286-1.77-.57-1.712-.97.057-.399 3.766-3.252 4.108-3.708.342-.457-.456-1.313-.456-1.77 0-.456 2.34-6.675 2.853-7.759.513-1.084 1.426-1.312 1.769-1.54.223-.15.562-.41.783-.583a.503.503 0 0 0 .172-.262c.11-.392.294-.994.414-1.153.17-.228 5.705-.97 7.075-1.084 1.084-.09 4.496.558 6.114.903.033.007.064.01.098.01 1.959.019 5.982-.025 6.797-.342.764-.297 4.117-1.635 6.037-2.403a.5.5 0 0 1 .623.225Z" stroke="red"/></svg>
